src/static/logos/lastfm.svg

<?xml version="1.0" encoding="UTF-8" standalone="no"?>
<svg width="512px" height="131px" viewBox="0 0 512 131" version="1.1" xmlns="http://www.w3.org/2000/svg" xmlns:xlink="http://www.w3.org/1999/xlink" preserveAspectRatio="xMidYMid">
	<g fill="#D41107">
		<path d="M114.409975,120.16185 L108.377185,103.763408 C108.377185,103.763408 98.5740818,114.696666 83.8733992,114.696666 C70.8654217,114.696666 61.6292017,103.386449 61.6292017,85.2895233 C61.6292017,62.1043724 73.3149337,53.8105501 84.8150748,53.8105501 C101.401997,53.8105501 106.680147,64.5553286 111.204378,78.31578 L117.237168,97.1659013 C123.267791,115.449862 134.578008,130.151989 167.187859,130.151989 C190.563656,130.151989 206.397382,122.989766 206.397382,104.141089 C206.397382,88.872079 197.724434,80.9544937 181.513749,77.1841805 L169.450336,74.5454669 C161.157236,72.6606714 158.707001,69.2673173 158.707001,63.6122087 C158.707001,57.2031819 163.795227,53.433591 172.090494,53.433591 C181.138234,53.433591 186.038702,56.826945 186.793343,64.9322877 L205.642742,62.669811 C204.134906,45.7052073 192.448451,38.7307419 173.220649,38.7307419 C156.256767,38.7307419 139.668401,45.1397687 139.668401,65.6862059 C139.668401,78.5042595 145.888948,86.6103244 161.53275,90.3799154 L174.35297,93.3955882 C183.96615,95.6580649 187.168858,99.6161354 187.168858,105.082764 C187.168858,112.055786 180.383594,114.883701 167.56554,114.883701 C148.526939,114.883701 140.610798,104.893563 136.085845,91.1331114 L129.865298,72.2844344 C121.949879,47.7792045 109.319583,38.7307419 84.2481918,38.7307419 C56.5395317,38.7307419 41.8359605,56.2607842 41.8359605,86.0434415 C41.8359605,114.696666 56.5395317,130.151989 82.9302793,130.151989 C104.22919,130.151989 114.409975,120.16185 114.409975,120.16185"></path>
		<path d="M33.7428942,111.301867 C31.8573766,111.868028 29.9725811,112.244265 27.522347,112.244265 C22.9981157,112.244265 19.7932412,110.171712 19.7932412,104.703639 L19.7932412,1.96784203 L0,1.96784203 L0,109.417072 C0,123.554482 9.80310296,129.400237 21.3010776,129.400237 C25.0713907,129.400237 28.6532243,128.833354 33.1774556,127.703921 L33.7428942,111.301867"></path>
		<path d="M272.183966,108.286195 C267.282776,111.680993 263.136226,113.378031 257.481117,113.378031 C250.31745,113.378031 246.358657,109.607718 246.358657,100.370776 L246.358657,56.2578956 L272.373168,56.2578956 L272.373168,40.8018505 L246.547137,40.8018505 L246.547137,19.8762877 L226.566138,22.327244 L226.566138,40.8018505 L213.93512,40.8018505 L213.93512,56.2578956 L226.566138,56.2578956 L226.566138,104.515882 C226.566138,121.861777 236.556276,130.151989 252.767684,130.151989 C261.627667,130.151989 269.545252,128.457839 275.7658,124.876728 L272.183966,108.286195"></path>
		<path d="M289.376045,115.071458 C289.376045,122.802008 295.408835,129.022556 303.136496,129.022556 C311.243283,129.022556 317.275351,122.802008 317.275351,115.071458 C317.275351,107.154595 311.243283,101.124694 303.136496,101.124694 C295.408835,101.124694 289.376045,107.154595 289.376045,115.071458"></path>
		<path d="M337.766183,56.2578956 L337.766183,127.890956 L357.559425,127.890956 L357.559425,56.2578956 L379.8029,56.2578956 L379.8029,40.8018505 L357.559425,40.8018505 L357.559425,32.883543 C357.559425,21.0086093 362.649817,17.2390183 370.943639,17.2390183 C376.787227,17.2390183 380.74602,18.5569309 385.270251,21.0086093 L388.473681,4.41879831 C383.196976,1.96784203 376.975707,0.64848519 369.435803,0.64848519 C352.845992,0.64848519 337.766183,8.56534838 337.766183,32.1289027 L337.766183,40.8018505 L325.135887,40.8018505 L325.135887,56.2578956 L337.766183,56.2578956"></path>
		<path d="M458.672564,57.956378 C456.410087,43.8182454 447.173867,38.726409 435.10901,38.726409 C423.044874,38.726409 412.677777,44.1937602 408.152102,57.5772525 L405.70259,40.8018505 L389.678939,40.8018505 L389.678939,127.890956 L409.472181,127.890956 L409.472181,78.6920169 C409.472181,61.9130042 418.143684,55.5039774 427.380626,55.5039774 C436.994528,55.5039774 440.95332,61.9130042 440.95332,72.2815458 L440.95332,127.890956 L460.558082,127.890956 L460.558082,78.5035374 C460.558082,61.9130042 469.417343,55.5039774 478.655007,55.5039774 C488.080429,55.5039774 492.037777,61.9130042 492.037777,72.2815458 L492.037777,127.890956 L511.83174,127.890956 L511.83174,65.3085247 C511.83174,46.6461608 500.898482,38.726409 486.382669,38.726409 C474.131498,38.726409 463.196795,44.1937602 458.672564,57.956378"></path>
	</g>
</svg>

<svg width="512" height="131" xmlns="http://www.w3.org/2000/svg" preserveAspectRatio="xMidYMid"><path d="M114.41 120.162l-6.033-16.399s-9.803 10.934-24.504 10.934c-13.008 0-22.244-11.31-22.244-29.407 0-23.186 11.686-31.48 23.186-31.48 16.587 0 21.865 10.745 26.39 24.506l6.032 18.85c6.03 18.284 17.341 32.986 49.95 32.986 23.377 0 39.21-7.162 39.21-26.01 0-15.27-8.673-23.188-24.883-26.958l-12.064-2.639c-8.293-1.884-10.743-5.278-10.743-10.933 0-6.409 5.088-10.178 13.383-10.178 9.048 0 13.949 3.393 14.703 11.498l18.85-2.262c-1.508-16.965-13.195-23.94-32.422-23.94-16.964 0-33.553 6.41-33.553 26.956 0 12.818 6.22 20.924 21.865 24.694l12.82 3.016c9.613 2.262 12.816 6.22 12.816 11.687 0 6.973-6.785 9.8-19.603 9.8-19.04 0-26.955-9.99-31.48-23.75l-6.22-18.849C121.95 47.78 109.32 38.731 84.247 38.731c-27.708 0-42.412 17.53-42.412 47.312 0 28.654 14.704 44.109 41.094 44.109 21.3 0 31.48-9.99 31.48-9.99m-80.666-8.86c-1.886.566-3.77.942-6.22.942-4.525 0-7.73-2.072-7.73-7.54V1.968H0v107.45C0 123.553 9.803 129.4 21.301 129.4c3.77 0 7.352-.567 11.876-1.696l.566-16.402m238.441-3.016c-4.901 3.395-9.048 5.092-14.703 5.092-7.164 0-11.122-3.77-11.122-13.007V56.258h26.014V40.802h-25.826V19.876l-19.98 2.451v18.475h-12.632v15.456h12.631v48.258c0 17.346 9.99 25.636 26.202 25.636 8.86 0 16.777-1.694 22.998-5.275l-3.582-16.59m17.192 6.784c0 7.731 6.033 13.952 13.76 13.952 8.107 0 14.14-6.221 14.14-13.952 0-7.916-6.033-13.946-14.14-13.946-7.727 0-13.76 6.03-13.76 13.946m48.39-58.813v71.633h19.793V56.258h22.244V40.802h-22.244v-7.918c0-11.875 5.09-15.645 13.385-15.645 5.843 0 9.802 1.318 14.326 3.77l3.204-16.59c-5.277-2.451-11.498-3.77-19.038-3.77-16.59 0-31.67 7.916-31.67 31.48v8.673h-12.63v15.456h12.63m120.907 1.698c-2.263-14.138-11.5-19.23-23.564-19.23s-22.431 5.468-26.957 18.851l-2.45-16.775H389.68v87.089h19.793V78.692c0-16.779 8.672-23.188 17.909-23.188 9.614 0 13.572 6.409 13.572 16.778v55.609h19.605V78.504c0-16.591 8.86-23 18.097-23 9.425 0 13.383 6.409 13.383 16.778v55.609h19.794V65.309c0-18.663-10.934-26.583-25.45-26.583-12.25 0-23.185 5.468-27.71 19.23" fill="#D41107"/></svg>
